X: 31225
T: Paddy Fahey's
R: jig
M: 6/8
K: Dmajor
DFA ~d3|Afe dAF|DGB g2e|fed cAF|
DFA ~d3|Afe dAF|G2E A,CE|FDD D2 g||
afd d2 c|Bdg gfg|Adf fed|cde efg|
f/2g/2af g2 a|fed efg|efd gec|edc d3||

